X: 26256
T: Meg Merriless
R: reel
M: 4/4
K: Amajor
cd|edcd eagf|feee e2cd|efec efec|cBBB B2cd|
edcd eagf|feee e2cd|efec BABc|A2AA A2ze|
^defe =deBe|ceAe BeGe|^defe =dcdB|BAAA A2e2|
^defe =deBe|ceAe BeGe|BABc defg|agag a2||

